images/sprite.svg

<svg width="0" height="0" class="hidden">
  <symbol xmlns="http://www.w3.org/2000/svg" viewBox="0 0 8 15" id="ic_arrow">
    <path fill-rule="evenodd" clip-rule="evenodd" d="M6.6832 0.168624C6.90803 -0.056208 7.27256 -0.056208 7.49739 0.168624C7.72222 0.393456 7.72222 0.757981 7.49739 0.982813L1.391 7.0892L7.49738 13.1956C7.72221 13.4204 7.72221 13.7849 7.49738 14.0098C7.27254 14.2346 6.90802 14.2346 6.68319 14.0098L0.174511 7.50109C0.172897 7.49952 0.171289 7.49793 0.169689 7.49633C0.0880022 7.41464 0.0359941 7.31451 0.0136647 7.20935C-0.0254931 7.02504 0.0265093 6.82523 0.169673 6.68207C0.171668 6.68007 0.173673 6.6781 0.175689 6.67614L6.6832 0.168624Z"></path>
  </symbol>
  <symbol xmlns="http://www.w3.org/2000/svg" viewBox="0 0 18 25" id="ic_buttonUp">
    <rect x="8.7002" width="2" height="12.3036" transform="rotate(45 8.7002 0)"></rect>
    <rect x="7.28613" y="1.41431" width="2" height="12.3715" transform="rotate(-45 7.28613 1.41431)"></rect>
    <rect x="8.7002" y="6.69995" width="2" height="12.3036" transform="rotate(45 8.7002 6.69995)"></rect>
    <rect x="7.28613" y="8.11426" width="2" height="12.3715" transform="rotate(-45 7.28613 8.11426)"></rect>
  </symbol>
  <symbol xmlns="http://www.w3.org/2000/svg" viewBox="0 0 17 20" id="ic_callback">
    <path fill-rule="evenodd" clip-rule="evenodd" d="M5.00446 18.5283C5.00446 17.9107 4.51622 17.4166 3.90592 17.4166H2.07502V2.09987H12.6943V6.1761C12.6943 6.79371 13.1825 7.2878 13.7928 7.2878C14.4031 7.2878 14.8913 6.79371 14.8913 6.1761V1.1117C14.8913 0.494088 14.4031 0 13.7928 0H1.09854C0.48824 0 0 0.494088 0 1.1117V18.5283C0 19.1459 0.48824 19.64 1.09854 19.64H3.90592C4.51622 19.64 5.00446 19.1459 5.00446 18.5283ZM13.7926 12.2287C13.1823 12.2287 12.6941 12.7228 12.6941 13.3404V17.2931H10.9853C10.375 17.2931 9.88672 17.7872 9.88672 18.4048C9.88672 19.0224 10.375 19.5165 10.9853 19.5165H13.7926C14.4029 19.5165 14.8912 19.0224 14.8912 18.4048V13.3404C14.8912 12.7228 14.4029 12.2287 13.7926 12.2287ZM8.05645 17.4166C8.66675 17.4166 9.15499 17.9107 9.15499 18.5283C9.15499 19.1459 8.66675 19.64 8.05645 19.64H6.83585C6.22555 19.64 5.7373 19.1459 5.7373 18.5283C5.7373 17.9107 6.22555 17.4166 6.83585 17.4166H8.05645ZM9.64339 6.29963C9.27721 5.92907 8.54485 5.92907 8.17867 6.29963L5.6154 8.77007C5.0051 9.63473 5.49334 10.3759 5.6154 10.4994L8.17867 13.0933C8.54485 13.4639 9.27721 13.4639 9.64339 13.0933C10.0096 12.7228 10.0096 11.9816 9.64339 11.6111L8.91103 10.8699H15.5023C16.1126 10.8699 16.6008 10.3759 16.6008 9.75825C16.6008 9.14064 16.1126 8.64655 15.5023 8.64655H8.91103L9.64339 7.7819C10.0096 7.41133 10.0096 6.6702 9.64339 6.29963Z"></path>
  </symbol>
  <symbol xmlns="http://www.w3.org/2000/svg" viewBox="0 0 14 14" id="ic_close">
    <path d="M13.295 2.115C13.6844 1.72564 13.6844 1.09436 13.295 0.705C12.9056 0.315639 12.2744 0.315639 11.885 0.705L7 5.59L2.115 0.705C1.72564 0.315639 1.09436 0.315639 0.705 0.705C0.315639 1.09436 0.315639 1.72564 0.705 2.115L5.59 7L0.705 11.885C0.315639 12.2744 0.315639 12.9056 0.705 13.295C1.09436 13.6844 1.72564 13.6844 2.115 13.295L7 8.41L11.885 13.295C12.2744 13.6844 12.9056 13.6844 13.295 13.295C13.6844 12.9056 13.6844 12.2744 13.295 11.885L8.41 7L13.295 2.115Z"></path>
  </symbol>
  <symbol xmlns="http://www.w3.org/2000/svg" viewBox="0 0 20 16" id="ic_email">
    <path fill-rule="evenodd" clip-rule="evenodd" d="M3.78906 2.11742H15.7031L9.70385 7.44073L3.78906 2.11742ZM9.0195 9.53059L9.01961 9.53068C9.39028 9.90124 10.008 9.90122 10.5021 9.65413L17.5443 3.31615V12.8664H13.4671C12.8494 12.8664 12.3552 13.3606 12.3552 13.9784C12.3552 14.5961 12.8494 15.0903 13.4671 15.0903H18.5327C19.1505 15.0903 19.6447 14.5961 19.6447 13.9784V1.12901C19.6447 0.592836 19.2724 0.149737 18.7702 0.0420492C18.6105 -0.00447631 18.4416 -0.0117515 18.2825 0.0170426H1.11196C0.873822 0.0170426 0.65404 0.090485 0.473852 0.216136C0.389532 0.264766 0.31267 0.322429 0.247328 0.387771C0.121219 0.51388 0.0523185 0.682896 0.0308945 0.865621C0.0106913 0.949957 0 1.03815 0 1.12901V13.9784C0 14.5961 0.494207 15.0903 1.11196 15.0903H6.17758C6.79534 15.0903 7.28955 14.5961 7.28955 13.9784C7.28955 13.3606 6.79534 12.8664 6.17758 12.8664H2.10038V3.40223L9.0195 9.53059ZM11.4903 13.9784C11.4903 13.3607 10.9961 12.8664 10.3783 12.8664H9.14282C8.52506 12.8664 8.03086 13.3607 8.03086 13.9784C8.03086 14.5962 8.52506 15.0904 9.14282 15.0904H10.3783C10.9961 15.0904 11.4903 14.5962 11.4903 13.9784Z"></path>
  </symbol>
  <symbol xmlns="http://www.w3.org/2000/svg" viewBox="0 0 27 15" id="ic_faq_arrow">
    <path fill-rule="evenodd" clip-rule="evenodd" d="M26.163 0.292893C25.7725 -0.0976309 25.1393 -0.0976312 24.7488 0.292893L13.4349 11.6068L2.12117 0.292986C1.73065 -0.0975378 1.09748 -0.0975378 0.706956 0.292986C0.316432 0.683511 0.316431 1.31668 0.706956 1.7072L12.7278 13.728C13.0207 14.021 13.4502 14.0942 13.8114 13.9476C13.8297 13.9402 13.8479 13.9322 13.8658 13.9236C13.9658 13.8759 14.0594 13.8107 14.1422 13.7279L26.163 1.70711C26.5535 1.31658 26.5535 0.683418 26.163 0.292893Z"></path>
  </symbol>
  <symbol xmlns="http://www.w3.org/2000/svg" viewBox="0 0 15 20" id="ic_location">
    <path d="M7.63718 3.83007C8.50204 3.83007 9.3669 4.20072 9.98466 4.81848C10.726 5.31269 11.0966 6.17755 11.0966 7.16596C11.0966 8.15438 10.726 8.89569 10.1082 9.637C9.49046 10.2548 8.62559 10.6254 7.63718 10.6254C6.77232 10.6254 5.90746 10.2548 5.16615 9.637C4.54839 9.01924 4.17773 8.15438 4.17773 7.16596C4.17773 6.3011 4.54839 5.43624 5.16615 4.69493C5.78391 4.07717 6.64877 3.70652 7.63718 3.83007ZM8.62559 6.17755C8.37849 5.93045 8.00784 5.8069 7.63718 5.8069C7.26653 5.8069 7.01942 5.93045 6.77232 6.17755C6.40166 6.54821 6.27811 6.79531 6.27811 7.16596C6.27811 7.53662 6.40166 7.90727 6.64877 8.15438C6.89587 8.40148 7.14297 8.52503 7.51363 8.52503C7.88428 8.52503 8.13139 8.40148 8.37849 8.15438C8.62559 7.90727 8.74915 7.66017 8.74915 7.28952C8.74915 6.91886 8.74915 6.42465 8.62559 6.17755Z"></path>
    <path d="M9.11932 14.8262C9.48997 14.332 10.1077 14.332 10.6019 14.7026C11.0961 15.0733 11.0961 15.6911 10.7255 16.1853C10.3548 16.6795 9.98418 17.0501 9.61353 17.5443C9.24287 17.915 8.87222 18.4092 8.37801 18.7799C8.00735 19.1505 7.3896 19.1505 6.89539 18.7799C5.16567 17.0501 3.43594 14.8262 2.20043 12.7258C1.08846 10.8725 0.470703 9.01927 0.470703 7.166C0.470703 5.18917 1.21201 3.33589 2.57108 2.10038C3.93015 0.864862 5.65987 0 7.6367 0C9.61353 0 11.4668 0.74131 12.7023 2.10038C13.9378 3.45945 14.8027 5.18917 14.8027 7.166C14.8027 7.6602 14.8027 8.03086 14.6791 8.52506C14.6791 8.89572 14.5556 9.38993 14.3085 9.88413C14.1849 10.3783 13.5672 10.749 13.073 10.6254C12.5788 10.5019 12.2081 9.88413 12.3317 9.38993C12.4552 9.01927 12.5788 8.64862 12.5788 8.27796C12.5788 7.90731 12.5788 7.6602 12.5788 7.28955C12.5788 5.93048 12.0846 4.57141 11.0961 3.70655C10.3548 2.71814 8.99577 2.22393 7.6367 2.22393C6.27763 2.22393 4.91856 2.71814 3.93015 3.70655C3.06529 4.57141 2.44753 5.80693 2.44753 7.28955C2.44753 8.64862 2.94174 10.2548 3.93015 11.861C4.79501 13.4671 6.15408 15.1969 7.51315 16.6795L8.00735 16.0617C8.37801 15.6911 8.74866 15.3204 9.11932 14.8262ZM11.3432 11.7374C11.5904 11.2432 12.2081 11.1196 12.7023 11.3668C13.1965 11.6139 13.4436 12.2316 13.073 12.7258C12.9494 12.9729 12.8259 13.22 12.5788 13.5907C12.3317 14.0849 11.5904 14.2084 11.0961 13.8378C10.6019 13.5907 10.4784 12.8494 10.849 12.3552C11.0961 12.2316 11.2197 11.9845 11.3432 11.7374Z"></path>
  </symbol>
  <symbol xmlns="http://www.w3.org/2000/svg" viewBox="0 0 7 12" id="ic_pag_arrow">
    <path fill-rule="evenodd" clip-rule="evenodd" d="M0.293044 1.05022C-0.09748 1.44074 -0.09748 2.07391 0.293044 2.46443L3.82852 5.99991L0.292893 9.53554C-0.0976311 9.92606 -0.0976311 10.5592 0.292893 10.9498C0.683417 11.3403 1.31658 11.3403 1.70711 10.9498L5.94091 6.71595C5.94392 6.71302 5.94692 6.71006 5.9499 6.70707C6.34042 6.31655 6.34042 5.68338 5.9499 5.29286L1.70726 1.05022C1.31673 0.659693 0.683569 0.659693 0.293044 1.05022Z"></path>
  </symbol>
  <symbol xmlns="http://www.w3.org/2000/svg" viewBox="0 0 15 20" id="ic_phone">
    <path fill-rule="evenodd" clip-rule="evenodd" d="M5.00446 18.5283C5.00446 17.9107 4.51622 17.4166 3.90592 17.4166H2.07502V2.09987H12.6943V6.1761C12.6943 6.79371 13.1825 7.2878 13.7928 7.2878C14.4031 7.2878 14.8913 6.79371 14.8913 6.1761V1.1117C14.8913 0.494088 14.4031 0 13.7928 0H1.09854C0.48824 0 0 0.494088 0 1.1117V18.5283C0 19.1459 0.48824 19.64 1.09854 19.64H3.90592C4.51622 19.64 5.00446 19.1459 5.00446 18.5283ZM13.7926 8.22871C13.1823 8.22871 12.6941 8.7228 12.6941 9.34041V17.2931H10.9853C10.375 17.2931 9.88672 17.7872 9.88672 18.4048C9.88672 19.0224 10.375 19.5165 10.9853 19.5165H13.7926C14.4029 19.5165 14.8912 19.0224 14.8912 18.4048V9.34041C14.8912 8.7228 14.4029 8.22871 13.7926 8.22871ZM8.05645 17.4166C8.66675 17.4166 9.15499 17.9107 9.15499 18.5283C9.15499 19.1459 8.66675 19.64 8.05645 19.64H6.83585C6.22555 19.64 5.7373 19.1459 5.7373 18.5283C5.7373 17.9107 6.22555 17.4166 6.83585 17.4166H8.05645ZM9.41768 5.1117C9.41768 4.49409 8.92944 4 8.31914 4H7.09854C6.48824 4 6 4.49409 6 5.1117C6 5.72931 6.48824 6.2234 7.09854 6.2234H8.31914C8.92944 6.2234 9.41768 5.72931 9.41768 5.1117Z"></path>
  </symbol>
  <symbol xmlns="http://www.w3.org/2000/svg" viewBox="0 0 24 24" id="ic_photo">
    <path d="M23 19C23 19.5304 22.7893 20.0391 22.4142 20.4142C22.0391 20.7893 21.5304 21 21 21H3C2.46957 21 1.96086 20.7893 1.58579 20.4142C1.21071 20.0391 1 19.5304 1 19V8C1 7.46957 1.21071 6.96086 1.58579 6.58579C1.96086 6.21071 2.46957 6 3 6H7L9 3H15L17 6H21C21.5304 6 22.0391 6.21071 22.4142 6.58579C22.7893 6.96086 23 7.46957 23 8V19Z" stroke="currentColor" stroke-width="2" stroke-linecap="round" stroke-linejoin="round" fill="none"></path>
    <path d="M12 17C14.2091 17 16 15.2091 16 13C16 10.7909 14.2091 9 12 9C9.79086 9 8 10.7909 8 13C8 15.2091 9.79086 17 12 17Z" stroke="currentColor" stroke-width="2" stroke-linecap="round" stroke-linejoin="round" fill="none"></path>
  </symbol>
  <symbol xmlns="http://www.w3.org/2000/svg" viewBox="0 0 21 21" id="ic_search">
    <path fill-rule="evenodd" clip-rule="evenodd" d="M15.5 2.70322C13.9 1.00119 11.6 0 9.1 0C6.6 0 4.4 1.10131 2.7 2.70322C1 4.30513 0 6.60787 0 9.11086C0 11.6138 1.1 13.8165 2.7 15.5185C4.3 17.2205 6.6 18.2217 9.1 18.2217C11.6 18.2217 13.8 17.1204 15.5 15.5185C17.2 13.9166 18.2 11.6138 18.2 9.11086C18.2 6.60787 17.1 4.40525 15.5 2.70322ZM9.1 2.50298C10.8 2.50298 12.5 3.20382 13.7 4.40525C14.9 5.60668 15.6 7.20859 15.5 9.01074C15.5 10.7128 14.8 12.4148 13.6 13.6162C12.5 14.7175 10.8 15.5185 9 15.5185C7.3 15.5185 5.6 14.8177 4.4 13.6162C3.3 12.5149 2.5 10.8129 2.5 9.01074C2.5 7.30871 3.3 5.60668 4.5 4.40525C5.6 3.30394 7.3 2.50298 9.1 2.50298ZM16.1001 16.1192C15.6001 16.6198 15.6001 17.4207 16.1001 17.9213C16.1001 17.9213 18.8001 20.5244 18.8001 20.6246C19.3001 21.1251 20.1001 21.1251 20.6001 20.6246C21.1001 20.124 21.1001 19.323 20.6001 18.8224L17.9001 16.1192C17.4001 15.6186 16.6001 15.6186 16.1001 16.1192Z"></path>
  </symbol>
  <symbol xmlns="http://www.w3.org/2000/svg" viewBox="0 0 17 16" id="ic_star">
    <path d="M10.3851 1.14875L11.7951 3.96875C11.9851 4.35875 12.4951 4.72875 12.9251 4.80875L15.4751 5.22875C17.1051 5.49875 17.4851 6.67875 16.3151 7.85875L14.3251 9.84875C13.9951 10.1788 13.8051 10.8288 13.9151 11.2988L14.4851 13.7588C14.9351 15.6988 13.8951 16.4588 12.1851 15.4388L9.79506 14.0188C9.36506 13.7588 8.64506 13.7588 8.21506 14.0188L5.82506 15.4388C4.11506 16.4488 3.07506 15.6988 3.52506 13.7588L4.09506 11.2988C4.18506 10.8188 3.99506 10.1688 3.66506 9.83875L1.67506 7.84875C0.505059 6.67875 0.885059 5.49875 2.51506 5.21875L5.06506 4.79875C5.49506 4.72875 6.00506 4.34875 6.19506 3.95875L7.60506 1.13875C8.37506 -0.381247 9.61506 -0.381247 10.3851 1.14875Z" fill="currentColor"></path>
  </symbol>
  <symbol xmlns="http://www.w3.org/2000/svg" viewBox="0 0 20 20" id="ic_time">
    <path fill-rule="evenodd" clip-rule="evenodd" d="M12.4571 17.6C12.9143 17.4857 13.4857 17.7143 13.7143 18.2857C13.8286 18.7429 13.6 19.3143 13.0286 19.5429C12.8 19.6 12.5429 19.6571 12.2857 19.7143C12.0286 19.7714 11.7714 19.8286 11.5429 19.8857C11.0857 20 10.5143 20 9.94286 20C7.2 20 4.68571 18.8571 2.85714 17.0286C1.14286 15.2 0 12.6857 0 9.94286C0 7.2 1.14286 4.68571 2.97143 2.85714C4.8 1.02857 7.2 0 9.94286 0C12.6857 0 15.2 1.14286 17.0286 2.97143C18.8571 4.8 20 7.31429 20 10.0571C20 10.5143 20 10.9714 19.8857 11.4286C19.8286 11.6571 19.8 11.8857 19.7714 12.1143C19.7429 12.3429 19.7143 12.5714 19.6571 12.8C19.5429 13.2571 18.9714 13.6 18.5143 13.4857C18.0571 13.3714 17.7143 12.8 17.8286 12.3429C17.9429 12 18.0571 11.5429 18.0571 11.2C18.0571 11.0286 18.0857 10.8286 18.1143 10.6286L18.1143 10.6286L18.1143 10.6285C18.1429 10.4285 18.1714 10.2286 18.1714 10.0571C18.1714 7.88572 17.2571 5.82857 15.7714 4.34286C14.2857 2.85714 12.3429 1.94286 10.0571 1.94286C7.77143 1.94286 5.71429 2.85714 4.34286 4.22857C2.97143 5.6 1.94286 7.65714 1.94286 9.94286C1.94286 12.2286 2.85714 14.1714 4.34286 15.6571C5.82857 17.1429 7.77143 18.0571 10.0571 18.0571C10.5143 18.0571 10.9714 18.0571 11.3143 17.9429C11.4857 17.8857 11.6856 17.8286 11.8856 17.7715L11.8857 17.7714C12.0857 17.7143 12.2857 17.6571 12.4571 17.6ZM16.5712 14.6285C16.7998 14.1714 17.4855 14.0571 17.9426 14.4C18.3998 14.6285 18.514 15.3143 18.1712 15.7714L18.1712 15.7714C17.8283 16.2286 17.4855 16.6857 17.1426 17.0285L17.1426 17.0285C16.7998 17.3714 16.4569 17.7143 15.9998 17.9428C15.5426 18.2857 14.9712 18.1714 14.6283 17.8285C14.2855 17.3714 14.3998 16.8 14.7426 16.4571C15.0855 16.2285 15.4283 16 15.6569 15.6571C16.114 15.3143 16.3426 15.0857 16.5712 14.6285ZM10.057 3.65709C9.4856 3.65709 9.02846 4.11423 9.02846 4.68566L9.14275 10.0571C9.14275 10.6285 9.59989 11.0857 10.1713 11.0857H13.5999C14.1713 11.0857 14.6285 10.6285 14.6285 10.0571C14.6285 9.48566 14.1713 9.02851 13.5999 9.02851H11.0856V4.68566C11.0856 4.11423 10.6285 3.65709 10.057 3.65709Z"></path>
  </symbol>
</svg>

<?xml version="1.0" encoding="utf-8"?><svg viewBox="0 0 27 25" xmlns="http://www.w3.org/2000/svg" xmlns:xlink="http://www.w3.org/1999/xlink"><style>:root>svg{display:none}:root>svg:target{display:block}</style><svg viewBox="0 0 8 15" id="ic_arrow" xmlns="http://www.w3.org/2000/svg"><path fill-rule="evenodd" clip-rule="evenodd" d="M6.683.169a.576.576 0 0 1 .814.814L1.391 7.089l6.106 6.107a.576.576 0 0 1-.814.814L.175 7.5a.573.573 0 0 1 .001-.825L6.683.17z"/></svg><svg viewBox="0 0 18 25" id="ic_buttonUp" xmlns="http://www.w3.org/2000/svg"><path d="M8.7 0l1.414 1.414-8.7 8.7L0 8.7z"/><path d="M7.286 1.414L8.7 0l8.748 8.748-1.415 1.414zM8.7 6.7l1.414 1.414-8.7 8.7L0 15.4z"/><path d="M7.286 8.114L8.7 6.7l8.748 8.748-1.415 1.414z"/></svg><svg viewBox="0 0 17 20" id="ic_callback" xmlns="http://www.w3.org/2000/svg"><path fill-rule="evenodd" clip-rule="evenodd" d="M5.004 18.528a1.1 1.1 0 0 0-1.098-1.111H2.075V2.1h10.62v4.076a1.1 1.1 0 0 0 1.098 1.112 1.1 1.1 0 0 0 1.098-1.112V1.112A1.1 1.1 0 0 0 13.793 0H1.099A1.1 1.1 0 0 0 0 1.112v17.416a1.1 1.1 0 0 0 1.099 1.112h2.807a1.1 1.1 0 0 0 1.098-1.112zm8.789-6.3a1.1 1.1 0 0 0-1.099 1.112v3.953h-1.709a1.1 1.1 0 0 0-1.098 1.112 1.1 1.1 0 0 0 1.098 1.111h2.808a1.1 1.1 0 0 0 1.098-1.111V13.34a1.1 1.1 0 0 0-1.098-1.111zm-5.737 5.189a1.1 1.1 0 0 1 1.099 1.111 1.1 1.1 0 0 1-1.099 1.112h-1.22a1.1 1.1 0 0 1-1.099-1.112 1.1 1.1 0 0 1 1.099-1.111h1.22zM9.643 6.3c-.366-.37-1.098-.37-1.464 0L5.615 8.77c-.61.865-.122 1.606 0 1.73l2.564 2.593c.366.37 1.098.37 1.464 0 .367-.37.367-1.111 0-1.482l-.732-.741h6.591a1.1 1.1 0 0 0 1.099-1.112 1.1 1.1 0 0 0-1.099-1.111H8.911l.732-.865c.367-.37.367-1.112 0-1.482z"/></svg><svg viewBox="0 0 14 14" id="ic_close" xmlns="http://www.w3.org/2000/svg"><path d="M13.295 2.115a.997.997 0 1 0-1.41-1.41L7 5.59 2.115.705a.997.997 0 1 0-1.41 1.41L5.59 7 .705 11.885a.997.997 0 1 0 1.41 1.41L7 8.41l4.885 4.885a.997.997 0 1 0 1.41-1.41L8.41 7l4.885-4.885z"/></svg><svg viewBox="0 0 20 16" id="ic_email" xmlns="http://www.w3.org/2000/svg"><path fill-rule="evenodd" clip-rule="evenodd" d="M3.79 2.117h11.913l-6 5.324L3.79 2.117zm5.23 7.414c.37.37.988.37 1.482.123l7.042-6.338v9.55h-4.077c-.618 0-1.112.495-1.112 1.112 0 .618.494 1.112 1.112 1.112h5.066c.617 0 1.112-.494 1.112-1.112V1.13c0-.536-.373-.98-.875-1.087a1.071 1.071 0 0 0-.488-.025H1.112a1.11 1.11 0 0 0-.638.2 1.09 1.09 0 0 0-.227.17.795.795 0 0 0-.216.479A1.13 1.13 0 0 0 0 1.129v12.85c0 .617.494 1.111 1.112 1.111h5.066c.617 0 1.112-.494 1.112-1.112 0-.617-.495-1.112-1.112-1.112H2.1V3.402l6.92 6.129zm2.47 4.447c0-.617-.494-1.112-1.112-1.112H9.143c-.618 0-1.112.495-1.112 1.112 0 .618.494 1.112 1.112 1.112h1.235c.618 0 1.112-.494 1.112-1.112z"/></svg><svg viewBox="0 0 27 15" id="ic_faq_arrow" xmlns="http://www.w3.org/2000/svg"><path fill-rule="evenodd" clip-rule="evenodd" d="M26.163.293a1 1 0 0 0-1.414 0L13.435 11.607 2.12.293A1 1 0 0 0 .707 1.707l12.02 12.021a1 1 0 0 0 1.415 0l12.021-12.02a1 1 0 0 0 0-1.415z"/></svg><svg viewBox="0 0 15 20" id="ic_location" xmlns="http://www.w3.org/2000/svg"><path d="M7.637 3.83c.865 0 1.73.37 2.348.988.741.495 1.112 1.36 1.112 2.348 0 .988-.371 1.73-.989 2.471-.618.618-1.482.988-2.47.988-.866 0-1.73-.37-2.472-.988-.618-.618-.988-1.483-.988-2.471 0-.865.37-1.73.988-2.471.618-.618 1.483-.988 2.471-.865zm.989 2.348c-.248-.248-.618-.371-.989-.371-.37 0-.618.123-.865.37-.37.371-.494.618-.494.989 0 .37.124.741.37.988.248.247.495.371.866.371.37 0 .617-.124.864-.37.248-.248.371-.495.371-.865 0-.371 0-.865-.123-1.112z"/><path d="M9.12 14.826c.37-.494.988-.494 1.482-.123.494.37.494.988.123 1.482-.37.495-.74.865-1.111 1.36-.371.37-.742.864-1.236 1.235-.37.37-.988.37-1.483 0-1.73-1.73-3.46-3.954-4.695-6.054C1.088 10.872.47 9.019.47 7.166c0-1.977.742-3.83 2.101-5.066C3.931.865 5.66 0 7.637 0c1.977 0 3.83.741 5.065 2.1 1.236 1.36 2.1 3.09 2.1 5.066 0 .494 0 .865-.123 1.36 0 .37-.123.864-.37 1.358-.124.494-.742.865-1.236.741-.494-.123-.865-.74-.741-1.235.123-.37.247-.741.247-1.112V7.29c0-1.36-.494-2.719-1.483-3.583-.741-.989-2.1-1.483-3.46-1.483-1.358 0-2.717.494-3.706 1.483A5.025 5.025 0 0 0 2.448 7.29c0 1.359.494 2.965 1.482 4.571.865 1.606 2.224 3.336 3.583 4.819l.494-.618c.371-.37.742-.742 1.112-1.236zm2.223-3.089c.247-.494.865-.617 1.36-.37.494.247.74.865.37 1.359-.124.247-.247.494-.494.865-.247.494-.989.617-1.483.247-.494-.247-.618-.989-.247-1.483.247-.123.37-.37.494-.618z"/></svg><svg viewBox="0 0 7 12" id="ic_pag_arrow" xmlns="http://www.w3.org/2000/svg"><path fill-rule="evenodd" clip-rule="evenodd" d="M.293 1.05a1 1 0 0 0 0 1.414L3.829 6 .293 9.536a1 1 0 0 0 1.414 1.414l4.234-4.234a1 1 0 0 0 .009-1.423L1.707 1.05a1 1 0 0 0-1.414 0z"/></svg><svg viewBox="0 0 15 20" id="ic_phone" xmlns="http://www.w3.org/2000/svg"><path fill-rule="evenodd" clip-rule="evenodd" d="M5.004 18.528a1.1 1.1 0 0 0-1.098-1.111H2.075V2.1h10.62v4.076a1.1 1.1 0 0 0 1.098 1.112 1.1 1.1 0 0 0 1.098-1.112V1.112A1.1 1.1 0 0 0 13.793 0H1.099A1.1 1.1 0 0 0 0 1.112v17.416a1.1 1.1 0 0 0 1.099 1.112h2.807a1.1 1.1 0 0 0 1.098-1.112zm8.789-10.3a1.1 1.1 0 0 0-1.099 1.112v7.953h-1.709a1.1 1.1 0 0 0-1.098 1.112 1.1 1.1 0 0 0 1.098 1.111h2.808a1.1 1.1 0 0 0 1.098-1.111V9.34a1.1 1.1 0 0 0-1.098-1.111zm-5.737 9.189a1.1 1.1 0 0 1 1.099 1.111 1.1 1.1 0 0 1-1.099 1.112h-1.22a1.1 1.1 0 0 1-1.099-1.112 1.1 1.1 0 0 1 1.099-1.111h1.22zM9.418 5.112A1.1 1.1 0 0 0 8.319 4H7.1A1.1 1.1 0 0 0 6 5.112a1.1 1.1 0 0 0 1.099 1.111h1.22a1.1 1.1 0 0 0 1.099-1.111z"/></svg><svg viewBox="0 0 21 21" id="ic_search" xmlns="http://www.w3.org/2000/svg"><path fill-rule="evenodd" clip-rule="evenodd" d="M15.5 2.703C13.9 1.001 11.6 0 9.1 0 6.6 0 4.4 1.101 2.7 2.703 1 4.305 0 6.608 0 9.111c0 2.503 1.1 4.705 2.7 6.407 1.6 1.703 3.9 2.704 6.4 2.704 2.5 0 4.7-1.102 6.4-2.704 1.7-1.601 2.7-3.904 2.7-6.407s-1.1-4.706-2.7-6.408zm-6.4-.2c1.7 0 3.4.7 4.6 1.902 1.2 1.202 1.9 2.804 1.8 4.606 0 1.702-.7 3.404-1.9 4.605-1.1 1.101-2.8 1.902-4.6 1.902-1.7 0-3.4-.7-4.6-1.902-1.1-1.101-1.9-2.803-1.9-4.605 0-1.702.8-3.404 2-4.606 1.1-1.101 2.8-1.902 4.6-1.902zm7 13.616c-.5.5-.5 1.302 0 1.802 0 0 2.7 2.603 2.7 2.704.5.5 1.3.5 1.8 0 .5-.501.5-1.302 0-1.803l-2.7-2.703c-.5-.5-1.3-.5-1.8 0z"/></svg><svg viewBox="0 0 20 20" id="ic_time" xmlns="http://www.w3.org/2000/svg"><path fill-rule="evenodd" clip-rule="evenodd" d="M12.457 17.6c.457-.114 1.029.114 1.257.686.115.457-.114 1.028-.685 1.257-.229.057-.486.114-.743.171-.257.057-.515.115-.743.172-.457.114-1.029.114-1.6.114-2.743 0-5.257-1.143-7.086-2.971C1.143 15.2 0 12.686 0 9.943 0 7.2 1.143 4.686 2.971 2.857 4.8 1.03 7.2 0 9.943 0c2.743 0 5.257 1.143 7.086 2.971C18.857 4.8 20 7.314 20 10.057c0 .457 0 .914-.114 1.372a5.732 5.732 0 0 0-.115.685 5.695 5.695 0 0 1-.114.686c-.114.457-.686.8-1.143.686-.457-.115-.8-.686-.685-1.143.114-.343.228-.8.228-1.143 0-.171.029-.371.057-.571.029-.2.057-.4.057-.572 0-2.171-.914-4.228-2.4-5.714-1.485-1.486-3.428-2.4-5.714-2.4-2.286 0-4.343.914-5.714 2.286-1.372 1.371-2.4 3.428-2.4 5.714 0 2.286.914 4.228 2.4 5.714 1.486 1.486 3.428 2.4 5.714 2.4.457 0 .914 0 1.257-.114.172-.057.372-.114.572-.172.2-.057.4-.114.571-.171zm4.114-2.972c.229-.457.914-.57 1.372-.228.457.229.571.914.228 1.371-.343.458-.686.915-1.028 1.258-.343.342-.686.685-1.143.914-.457.343-1.029.228-1.372-.115-.342-.457-.228-1.028.115-1.37.342-.23.685-.458.914-.8.457-.344.686-.572.914-1.03zm-6.514-10.97c-.571 0-1.029.456-1.029 1.028l.115 5.371c0 .572.457 1.029 1.028 1.029H13.6c.571 0 1.029-.457 1.029-1.029 0-.571-.458-1.028-1.03-1.028h-2.513V4.686c0-.572-.457-1.029-1.029-1.029z"/></svg></svg>
